public/images/hypebang-logo.svg

<?xml version="1.0" encoding="UTF-8"?>
<svg xmlns="http://www.w3.org/2000/svg" width="331" height="280" viewBox="0 0 331 280" fill="none">
  <path d="M0.904053 39.2664L29.6249 26.4398L43.2367 56.2336L62.4294 47.6825L48.8176 17.8887L77.5839 5.06213L114.653 86.8375L85.887 99.6641L72.7743 70.6804L53.5817 79.2765L66.7398 108.215L38.2004 121.042L0.904053 39.2664Z" fill="#585191"></path>
  <path d="M194.947 45.6514L155.593 96.5799L149.035 127.733L118.275 121.277L125.015 89.2205L107.962 27.3659L140.576 34.2286L147.497 63.9369L165.862 39.5562L194.947 45.6514Z" fill="#585191"></path>
  <path d="M197.402 0.696279H238.29C248.297 0.0344591 258.227 2.84913 266.431 8.67288C269.719 11.4058 272.325 14.8802 274.04 18.8161C275.755 22.7521 276.531 27.0397 276.305 31.3337C276.575 35.9961 275.762 40.6578 273.931 44.9464C272.1 49.2351 269.301 53.032 265.758 56.034C258.756 61.7899 248.657 64.6905 235.372 64.6905H228.595V90.9317H197.177L197.402 0.696279ZM241.79 26.8015C239.371 25.2515 236.525 24.5212 233.667 24.7168H228.595V42.0749H233.891C236.731 42.3123 239.567 41.5606 241.925 39.9448C242.812 39.1112 243.506 38.0897 243.956 36.9535C244.406 35.8173 244.601 34.5947 244.528 33.3732C244.646 32.1346 244.457 30.886 243.979 29.7391C243.501 28.5922 242.749 27.5829 241.79 26.8015V26.8015Z" fill="#585191"></path>
  <path d="M237.324 76.6417L304.931 58.5912L311.391 82.1019L274.312 92.1199L276.542 100.288L310.663 91.2625L316.76 113.374L282.593 122.399L285.186 131.786L324.54 121.181L331 144.737L261.164 163.419L237.324 76.6417Z" fill="#585191"></path>
  <path d="M18.7471 221.205L28.8059 132.194L72.4838 137.411C81.4681 137.841 90.1742 140.683 97.698 145.642C100.254 147.597 102.227 150.221 103.401 153.227C104.576 156.233 104.907 159.506 104.359 162.689C103.988 167.509 101.816 172.009 98.2792 175.283C94.0673 178.789 88.9189 180.964 83.4815 181.534V181.534C89.4804 182.992 94.9025 186.237 99.0392 190.845C100.667 192.874 101.861 195.22 102.546 197.736C103.23 200.251 103.391 202.882 103.018 205.463C102.732 209.113 101.522 212.629 99.5026 215.676C97.4836 218.723 94.7231 221.199 91.4838 222.869C82.7208 226.743 73.0131 227.917 63.5873 226.243L18.7471 221.205ZM70.0249 192.914C67.8175 191.486 65.2706 190.679 62.6484 190.575L53.7072 189.541L52.2319 202.404L61.3967 203.484C63.9357 203.966 66.5593 203.701 68.952 202.719C69.7999 202.228 70.5107 201.529 71.0187 200.688C71.5267 199.847 71.8153 198.89 71.8579 197.906C72.0117 196.986 71.9235 196.041 71.6019 195.165C71.2804 194.289 70.7367 193.513 70.0249 192.914ZM71.1426 161.07C68.9714 159.677 66.473 158.885 63.9002 158.776L57.1496 158.011L55.719 170.785L62.8272 171.594C65.2454 172.054 67.7439 171.804 70.0249 170.875C70.8528 170.384 71.5421 169.688 72.0272 168.854C72.5124 168.019 72.7772 167.074 72.7967 166.107C72.9845 165.195 72.9305 164.25 72.6402 163.365C72.3498 162.481 71.8333 161.689 71.1426 161.07V161.07Z" fill="#585191"></path>
  <path d="M92.3496 279.399L105.902 186.014L141.679 180.147L184.91 264.188L153.018 269.424L147.958 257.869L124.287 261.751L123.61 274.298L92.3496 279.399ZM125.914 241.214L139.782 238.958L128.127 212.418L125.914 241.214Z" fill="#585191"></path>
  <path d="M238.582 116.581L244.015 206.276L214.313 208.035L183.523 163.977L186.285 209.749L159.118 211.372L153.685 121.677L184.021 119.828L214.313 162.939L211.596 118.204L238.582 116.581Z" fill="#585191"></path>
  <path d="M279.707 251.987H279.39C275.579 255.718 270.654 258.11 265.358 258.801C259.834 259.353 254.273 258.203 249.425 255.507C244.845 253.423 240.82 250.295 237.675 246.376C234.53 242.457 232.353 237.856 231.318 232.944C229.428 221.771 231.475 210.29 237.112 200.452C242.63 188.181 252.755 178.556 265.313 173.647C271.239 171.598 277.535 170.836 283.781 171.412C290.026 171.988 296.076 173.888 301.525 176.986C310.246 181.018 317.23 188.03 321.215 196.752C324.848 205.735 325.295 215.685 322.482 224.956L293.105 216.427C294.467 213.273 294.861 209.786 294.237 206.409C293.876 205.109 293.236 203.902 292.36 202.874C291.485 201.845 290.395 201.019 289.167 200.452C287.334 199.479 285.269 199.024 283.195 199.135C281.121 199.247 279.116 199.92 277.398 201.084C272.783 204.669 269.019 209.226 266.374 214.429C263.729 219.632 262.269 225.353 262.099 231.184C262.455 233.475 263.395 235.637 264.829 237.463C266.264 239.288 268.145 240.716 270.292 241.608C272.864 243.087 275.872 243.63 278.802 243.142C280.103 242.847 281.317 242.253 282.346 241.407C283.376 240.56 284.193 239.486 284.731 238.269L268.798 230.146L277.263 213.719L317.367 234.297L295.504 277.168L274.456 266.383L279.707 251.987Z" fill="#585191"></path>
</svg>

<svg xmlns="http://www.w3.org/2000/svg" width="331" height="280" fill="none" viewBox="0 0 331 280"><path fill="#585191" d="m.904 39.266 28.72-12.826 13.613 29.794 19.192-8.552L48.818 17.89 77.584 5.062l37.069 81.776-28.766 12.826L72.774 70.68l-19.192 8.596 13.158 28.939-28.54 12.827z"/><path fill="#585191" d="M194.947 45.651 155.593 96.58l-6.558 31.153-30.76-6.456 6.74-32.056-17.053-61.855 32.614 6.863 6.921 29.708 18.365-24.38zM197.402.696h40.888a43.63 43.63 0 0 1 28.141 7.977 27.44 27.44 0 0 1 7.609 10.143 27.7 27.7 0 0 1 2.265 12.518 30.2 30.2 0 0 1-2.374 13.612 29.9 29.9 0 0 1-8.173 11.088c-7.002 5.756-17.101 8.657-30.386 8.657h-6.777v26.24h-31.418zm44.388 26.106a13.36 13.36 0 0 0-8.123-2.085h-5.072v17.358h5.296c2.84.237 5.676-.514 8.034-2.13a8.3 8.3 0 0 0 2.031-2.992 8.4 8.4 0 0 0 .572-3.58 7.6 7.6 0 0 0-.549-3.634 7.5 7.5 0 0 0-2.189-2.937"/><path fill="#585191" d="m237.324 76.642 67.607-18.05 6.46 23.51-37.079 10.018 2.23 8.168 34.121-9.025 6.097 22.111-34.167 9.025 2.593 9.387 39.354-10.605 6.46 23.556-69.836 18.682zM18.747 221.205l10.059-89.011 43.678 5.217a50.17 50.17 0 0 1 25.214 8.231 17.6 17.6 0 0 1 5.703 7.585 17.73 17.73 0 0 1 .958 9.462 19.16 19.16 0 0 1-6.08 12.594 27.63 27.63 0 0 1-14.797 6.251 30.63 30.63 0 0 1 15.557 9.311 19 19 0 0 1 3.507 6.891c.684 2.515.845 5.146.472 7.727a21.53 21.53 0 0 1-3.515 10.213 21.37 21.37 0 0 1-8.02 7.193 48.15 48.15 0 0 1-27.896 3.374zm51.278-28.291a14.65 14.65 0 0 0-7.377-2.339l-8.94-1.034-1.476 12.863 9.165 1.08c2.539.482 5.162.217 7.555-.765a5.8 5.8 0 0 0 2.067-2.031 5.9 5.9 0 0 0 .839-2.782 5.4 5.4 0 0 0-.256-2.741 5.35 5.35 0 0 0-1.577-2.251m1.118-31.844a14.55 14.55 0 0 0-7.243-2.294l-6.75-.765-1.431 12.774 7.108.809c2.418.46 4.917.21 7.198-.719a5.65 5.65 0 0 0 2.002-2.021c.485-.835.75-1.78.77-2.747a5.34 5.34 0 0 0-.157-2.742 5.3 5.3 0 0 0-1.497-2.295"/><path fill="#585191" d="m92.35 279.399 13.552-93.385 35.777-5.867 43.231 84.041-31.892 5.236-5.06-11.555-23.671 3.882-.677 12.547zm33.564-38.185 13.868-2.256-11.655-26.54zM238.582 116.581l5.433 89.695-29.702 1.759-30.79-44.058 2.762 45.772-27.167 1.623-5.433-89.695 30.336-1.849 30.292 43.111-2.717-44.735z"/><path fill="#585191" d="M279.707 251.987h-.317a24.6 24.6 0 0 1-14.032 6.814 27.2 27.2 0 0 1-15.933-3.294 32.1 32.1 0 0 1-11.75-9.131 32 32 0 0 1-6.357-13.432 48.93 48.93 0 0 1 5.794-32.492 51.45 51.45 0 0 1 28.201-26.805 44.12 44.12 0 0 1 36.212 3.339 40.18 40.18 0 0 1 19.69 19.766 42.4 42.4 0 0 1 1.267 28.204l-29.377-8.529a17.33 17.33 0 0 0 1.132-10.018 9.317 9.317 0 0 0-5.07-5.957 11.44 11.44 0 0 0-11.769.632 39.66 39.66 0 0 0-11.024 13.345 39.5 39.5 0 0 0-4.275 16.755 13.53 13.53 0 0 0 2.73 6.279 13.6 13.6 0 0 0 5.463 4.145 12.84 12.84 0 0 0 8.51 1.534 8.56 8.56 0 0 0 3.544-1.735 8.5 8.5 0 0 0 2.385-3.138l-15.933-8.123 8.465-16.427 40.104 20.578-21.863 42.871-21.048-10.785z"/></svg>
